X:1
T:James Gibb editions
T:Lapidabant Stephanum - Palestrina
T:#
%%score [ 1 2 3 4 ]
L:1/8
Q:1/4=108
M:2/2
K:C
V:1 treble nm="Soporano" snm="S"
V:2 treble nm="Alto" snm="A"
V:3 treble-8 nm="Tenor" snm="T"
V:4 bass nm="Bass" snm="B"
V:1
"^Lapidabant Stephanum""^Giovanni Pierluigi da Palestrina\n(1525-94)""^Acts 7: 58,59b" z8 | z8 | %2
w: ||
 z8 | G8 | G4 A4 | G4 (c3 d |[M:2/2] e^f g4) f2 | g4 (G3 A | Bc d3 c c2- | c2) B2 c4 | z2 (A4 GF | %11
w: |La-|pi- da-|bant Ste\- *|* * * pha-|num, Ste\- *||* pha- num,|la\- * *|
 E2 ^F2 G4- | G2 G2 (AGAB | cdec d2) d2 | c3 B/A/ G4- | G4) z2 G2 | A2 c4 B2 | c2 B2 c4 | A8 | %19
w: * pi- da\-|* bant Ste\- * * *|* * * * * pha-|num\- * * *|* in-|vo- can- tem|et di- cen-|tem,|
 A4 _B2 (A2- | AG G4 ^F2) | G8- | G4 z4 | z8 | z4 z2 c2 | d2 f4 e2 | f2 e2 (f3 e | dc c4 B2) | c8 | %29
w: et di- cen\-||tem,|||in-|vo- can- tem|et- di- cen\- *||tem:|
 g6 e2 | e8 | c8 | d2 (f3 e e2- | e2 dc d4) | e8 | z2 e4 e2 | (d3 c/d/ e4) | z8 | z8 | z2 f4 f2 | %40
w: Do- mi-|ne|Je-|su Chri\- * *||ste,|ac- ci-|pe, * * *|||ac- ci-|
 c2 f4 e2 | (d2 cB A2) (c2 | B2 A3 G G2- | G2 ^F2) G4- | G4 z2 c2- | c2 B2 G2 (A2- | AG G4 ^F2) | %47
w: pe spi- ri-|tum * * * me\-||* * um,|* spi-|* ri- tum me\-||
 G8 | z4 z2 d2 | e2 c4 B2 | c2 d2 B2 c2- | c2 G2 A4 | G8 | z8 | z8 | z4 z2 d2 | e2 c4 B2 | %57
w: um.|Et|ne sta- tu-|as il- lis hoc|* pec- ca-|tum,|||et|ne sta- tu-|
 c2 d2 B2 c2- | c2 B2 A4 | G8 | A4 B2 G2 | A2 B2 (c3 d | e^f g4) f2 | (gfed c2) (d2- | dc c4) B2 | %65
w: as il- lis hoc|* pec- ca-|tum,|et ne sta-|tu- as il\- *|* * * lis|hoc * * * * pec\-|* * * ca-|
 c4 e4- | e4 d4 | c2 A2 (c2 _B2- | BA A4 G2) | A8- | A8 | z8 | z2 g4 f2 | g4 (f3 e | %74
w: tum. Et|* cum|hoc di- xis\- *||set,|||ob- dor-|mi- vit *|
 d2 c2 B2 (c2- | cB G2 A2) A2 | G8- | G8 | z2 d4 ^c2 | d3 c B2) A2 | G2 (A3 G G2- | G2 FE ^F2) F2 | %82
w: * in Do\- *|* * * * mi-|no,||ob- dor-|mi\- * * vit|in Do\- * *|* * * * mi-|
 G8- |[Q:1/4=103] G8 |[Q:1/4=95] G8 |[Q:1/4=92] G8 |] %86
w: no.||||
V:2
 D8 | D4 E4 | D2 (G4 F2 | E2 D2 E3 D | C2 B,2 C2) D2 | G,2 (G2 AGAB |[M:2/2] cB BA/G/ A2) A2 | %7
w: La-|pi- da-|bant Ste\- *||* * * pha-|num, Ste\- * * * *|* * * * * * pha|
 (G3 F/E/ D4) | G4 E2 ^F2 | G4 z4 | C8 | C4 D4 | C4 (F3 G | AB c4) (B2 | A2 GF E2 D2 | E2 G3 FED | %16
w: num, * * *|Ste\- * pha-|num,|la-|pi- da-|bant Ste\- *|* * * pha\-|||
 C4) D4 | z4 z2 C2 | D2 F4 E2 | F2 E2 (F3 E | D4 C3 D | E2 D2 E2) D2 | z2 G2 A2 c2 | %23
w: * num|in-|vo- can- tem|et di- cen\- *||* * * tem,|in- vo- can-|
 B2 c2 B2 (c2- | c2 B2 A4 | F3 G AB c2) | A4 A4- | A2 G2 G4 | E2 G4 E2 | (E3 D C4) | c6 A2 | A8 | %32
w: tem et di- cen\-|||tem, et|* di- cen-|tem: Do- mi-|ne, * *|Do- mi-|ne|
 (F3 G A2) A2 | A4 A4 | z2 c4 c2 | G4 c4- | c2 B2 (A2 GF | E2) D2 C2 c2- | c2 B2 (G3 A | %39
w: Je\- * * su|Chri- ste,|ac- ci-|pe spi\-|* ri- tum * *|* me- um, spi\-|* ri- tum *|
 _B2 AG A4- | A4 G4 | A4 z2 G2- | G2 F2 E4 | (C3 D E4 | D3 C B,2 A,2) | G,2 G4 F2 | D2 E2) D4 | %47
w: |* me-|um, spi\-|* ri- tum|me\- * *||um, spi- ri-|tum * me-|
 B,4 z4 | z2 G2 A2 G2- | G2 E2 F2 G2 | E2 F2 G2 (A2- | AG G4 ^F2 | G2 E2 D3 E | FG A4 G2 | %54
w: um.|Et ne sta\-|* tu- as il-|lis hoc pec- ca\-||||
 A2 B2 cBAG | A2 G2) F4 | z2 G2 A2 G2- | G2 ^F2 G2 A2 | ^F2 G4 F2 | (E3 DEF G2- | G2 ^F2 G2 E2) | %61
w: |* * tum,|et ne sta\-|* tu- as il-|lis hoc pec-|ca\- * * * *||
 D2 G4 ^F2 | (G4 A4 | G3 F E2 D2 | E2 DC D4) | C4 c4- | c4 B4 | A6 G2 | (F2 E3 D D2- | D2 ^C2 D4) | %70
w: tum, hoc pec-|ca\- *|||tum. Et|* cum|hoc di-|xis\- * * *||
 A,4 z2 A2- | A2 G2 F2 E2 | D2 (E3 D D2- | D2 ^C2 D3 E | FGAF G2 A2- | AG G4) ^F2 | G2 E4 D2 | %77
w: set, ob\-|* dor- mi- vit|in Do\- * *|||* * * mi-|no, ob- dor-|
 E4 D2 B,2 | C2 D2 G,4 | A,4 (F3 E | D2 E3 DB,^C | D4) D4 | B,2 E4 D2 | E4 D2 D2 | (C3 D E2) E2 | %85
w: mi- vit in|Do- mi- no,|in Do\- *||* mi-|no, ob- dor-|mi- vit in|Do\- * * mi-|
 D8 |] %86
w: no.|
V:3
 z8 | G8 | G4 A4 | G4 (c3 d | e^f g4) f2 | g2 (e2 f3 e |[M:2/2][K:treble-8] c2 e2 d4- | %7
w: |La-|pi- da-|bant Ste\- *|* * * pha-|num, Ste\- * *|* pha- num,|
 d2 (GA Bc d2- | d2) B2 c4 | d2 g3 fed | e2 AB cd e2- | ed c4 B2 | e4 d4) | c4 (g4 | c4) z4 | %15
w: * la\- * * * *|* pi- da-|bant Ste\- * * *||||pha- num||
 z2 d2 e2 g2- | g2 ^f2 g4 | e8 | (f3 e d2) ^c2 | d2 ^c2 (d3 =c | _B4 A4) | G4 z2 d2 | e2 g4 f2 | %23
w: in- vo- can\-|* tem et|di-|cen\- * * tem,|et di- cen\- *||tem, in-|vo- can- tem|
 g2 ^f2 (g=fed | cA d3 c c2- | c2 B2) c4 | z2 c2 d2 (f2- | f2 e2 d4) | c4 z2 g2- | g2 e2 e4- | %30
w: et di- cen\- * * *||* * tem,|et di- cen\-||tem: Do\-|* mi- ne|
 e4 (c3 d | e4) A2 (f2- | fe d4 c2 | f8 | e4 (ABcd | e4) z2 g2- | g2 g2 c4 | g6 f2 | e2 d4 ^c2) | %39
w: * Je\- *|* su Chri\-|||* ste, * * *|* ac\-|* ci- pe|spi- ri-|tum me\- *|
 d4 z2 f2- | f2 f2 c4 | f6 e2 | d4 (c3 B | A4) G2 c2- | c2 B2 G2 (AB | cd e4 dc | B2 c2 A4 | %47
w: um, ac\-|* ci- pe|spi- ri-|tum me\- *|* um, spi\-|* ri- tum me\- *|||
 G3 A Bc d2- | dc c4 B2) | c4 z4 | z2 d2 e2 c2- | c2 B2 c2 d2 | B2 c4 B2 | (A3 B cd e2 | %54
w: ||um.|Et ne sta\-|* tu- as il-|lis hoc pec-|ca\- * * * *|
 d4 c2 d2- | dc c4 B2) | (c3 B A2) e2- | e2 d2 (e2 c2) | d8 | z8 | z8 | z2 d2 e2 c2- | %62
w: ||tum, * * hoc|* pec- ca\- *|tum,|||et- ne sta\-|
 c2 B2 c2 d2 | B2 c4 B2 | A4 G4 | z4 g4- | g4 g4 | e2 (f3 e d2- | d2 ^c2) d4 | e4 z2 f2- | %70
w: * tu- as il-|lis hoc pec-|ca- tum.|Et|* sum|hoc di\- * *|* * xis-|set, ob\-|
 f2 e2 f4 | (e3 d c2) _B2 | (A2 _B4) A2 | (G4 A4) | z2 A2 e2 c2 | e2 e2 (d3 c | B2) c2 G4 | %77
w: * dor- mi-|vit * * in|Do\- * mi-|no, *|ob- dor- mi-|vit in Do\- *|* mi- no,|
 z4 z2 g2- | g2 ^f2 g4 | (f3 e d2) c2 | (B2 c3 B G2 | A4) A4 | G2 c4 B2 | c4 B2 B2 | (e3 d c2) c2 | %85
w: ob\-|* dor- mi-|vit * * in|Do\- * * *|* mi-|no ob- dor-|mi- vit in|Do\- * * mi-|
 B8 |] %86
w: no.|
V:4
 z8 | z8 | z8 | z8 | z8 | z8 |[M:2/2] z8 | G,8 | G,4 A,4 | G,4 (C3 B, | A,G, F,4 E,2 | %11
w: |||||||La-|pi- da-|bant Ste\- *||
 A,2 A,2 (G,4 | C,4) z4 | z4 z2 G,2 | A,2 C4 B,2 | C2 B,2 C3 B, | A,4) G,4 | A,2 ^G,2 A,4 | %18
w: * pha- num||in-|vo- can- tem|et di- cen\- *|* tem,|et di- cen-|
 D,4 z4 | z8 | z2 G,2 A,2 C2- | C2 B,2 C2 B,2 | (C3 B, A,4) | G,2 A,2 E,2 (A,2- | A,2 G,2 F,3 E, | %25
w: tem,||in- vo- can\-|* tem et di-|cen\- * *|tem, et di- cen\-||
 D,4) C,4 | D,2 A,2 (D,3 E, | F,2 C,2 G,4) | C,8- | C,4 z2 C2- | C2 A,2 A,4- | A,4 F,4 | %32
w: * tem,|et- di- cen\- *||tem:|* Do\-|* mi- ne|* Je-|
 (_B,4 A,4) | D,8 | A,8 | C6 C2 | G,4 z2 C2- | C2 B,2 A,4 | (G,3 F, E,4) | D,8 | z8 | z8 | %42
w: su *|Chri-|ste,|ac- ci-|pe spi\-|* ri- tum|me\- * *|um,|||
 z4 z2 C2- | C2 C2 C,4 | G,6 F,2 | (E,3 D, E,2) (F,2 | G,2 C,2) D,4 | (E,3 F, G,4) | %48
w: ac\-|* ci- pe|spi- ri-|tum * * me\-|* * um,|spi\- * *|
 F,2 E,2 (F,2 G,2) | C,4 z4 | z8 | z8 | z4 G,4 | A,2 F,4 E,2 | F,2 G,2 E,2 F,2- | F,2 E,2 D,4 | %56
w: ri- tum me\- *|um.|||Et|ne sta- tu-|as il- lis hoc|* pec- ca-|
 C,4 z4 | z8 | z4 z2 D2 | E2 C4 B,2 | C2 D2 B,2 C2- | C2 B,2 A,4 | G,4 z4 | z8 | z8 | z4 C4- | %66
w: tum,||et|ne- sta- tu-|as il- lis hoc|* pec- ca-|tum.|||Et|
 C4 G,4 | (A,3 G, F,2) G,2 | (A,4 _B,4) | A,4 z2 D2- | D2 ^C2 D4 | (=C3 _B, A,2) G,2 | %72
w: * cum|hoc * * dis-|xis\- *|set, ob\-|* dor- mi-|vit * * in|
 (F,2 G,3 F, D,2 | E,2) E,2 D,4 | z8 | z8 | z2 C4 B,2 | C4 (G,3 F, | E,2) D,2 E,2 E,2 | D,6 F,2 | %80
w: Do\- * * *|* mi- no,|||ob- dor-|mi- vit *|* in Do- mi-|no, in|
 (G,2 C,2 E,2) E,2 | D,8 | (E,3 F, G,4) | (C,D,E,F, G,4 | C,4) C,4 | G,8 |] %86
w: Do\- * * mi-|no,|in * *|Do\- * * * *|* mi-|no.|

